X: 62
T: Bonne Bonche
R: reel
M: C
L: 1/8
Z: 2012 John Chambers <jc:trillian.mit.edu>
B: Saml. Ann & Peter Thompson "Twenty Four Country Dances for the Year 1791", London 1791, p.31 #2
K: G
% - - - - - - - - - - - - - - - - - - - - - - - - -
|:\
B2B2 dBdB | A2A2 cAcA |\
B2B2 e2e2 | dcBA G2G2 :|
|:\
D2Dd (dc)(cB) | D2Dc (cB)(BA) |\
B2B2 e2e2 | dcBA G2G2 :|
% - - - - - - - - Dance description - - - - - - - -
%%begintext align
%% Cast off two Cu: .|.
%% lead up again and cast off |:.
%% hands 4 at bottom .|:
%% Right & Left at top :|:
%%endtext

%%sep 1 1 500
%%sep 1 1 500
